frontend/public/svg/weather/snowman.svg

<svg width="156" height="154" viewBox="0 0 156 154" fill="none" xmlns="http://www.w3.org/2000/svg">
<g clip-path="url(#clip0)">
<path d="M54.6117 63.3453C54.571 63.2527 54.5367 62.9899 54.387 62.8665C45.7995 55.7341 43.0489 46.4585 44.5939 35.7182C46.0378 25.669 49.7194 16.5249 57.4675 9.71079C65.3481 2.77922 74.5976 -0.834062 85.3412 0.63745C86.7897 0.819201 88.2067 1.19461 89.5555 1.75335C100.582 6.51443 109.443 13.6514 113.666 25.2719C117.258 35.1504 115.461 44.5452 109.699 53.1432C107.783 56.0022 105.221 58.4288 102.798 61.2346C112.634 64.0798 118.796 71.296 124.021 79.9196C125.369 79.0428 126.559 78.2624 127.756 77.4912C129.214 76.4424 130.735 75.4828 132.309 74.6184C137.529 72.1007 141.516 68.4062 143.986 63.1126C144.401 62.3149 144.916 61.5742 145.52 60.9077C146.516 59.7171 147.731 58.8231 149.31 59.7348C150.89 60.6464 150.65 62.1824 150.277 63.6395C150.059 64.2754 149.808 64.8995 149.525 65.5098C149.145 66.5389 148.794 67.5785 148.397 68.7101C149.74 69.4104 150.961 69.9459 152.072 70.6508C154.053 71.9051 154.782 73.521 154.238 75.1139C154.084 75.5721 153.839 75.9941 153.518 76.3551C153.197 76.7167 152.806 77.0094 152.369 77.2162C151.932 77.4229 151.458 77.5391 150.975 77.5581C150.492 77.5778 150.01 77.4991 149.558 77.3278C145.999 75.8648 143.345 77.2195 140.532 79.0566C137.34 81.1417 133.997 82.9946 130.747 84.9951C129.616 85.6908 128.563 86.5165 127.376 87.3527C128.925 93.0556 129.825 98.7316 129.334 104.459C127.933 120.797 122.206 135.03 108.363 144.895C97.9205 152.337 86.1406 154.694 73.5067 153.304C67.5767 152.741 61.7662 151.281 56.2747 148.972C38.671 141.282 28.7257 127.947 27.3474 108.651C26.9457 103.021 28.0785 97.4741 29.8269 92.0908C30.1341 91.145 30.4512 90.2025 30.7374 89.3381L13.0083 75.0542C10.5496 75.0542 7.98401 75.0713 5.41839 75.0424C4.74376 75.0437 4.07202 74.9551 3.42053 74.7799C2.01072 74.3769 0.992025 73.477 0.934267 71.9504C0.876509 70.3962 1.87488 69.4386 3.28273 69.0454C4.26681 68.8308 5.26838 68.7061 6.27502 68.672C7.36587 68.5749 8.46117 68.5217 9.53494 68.4508C9.53494 66.8756 9.5264 65.5555 9.53494 64.2336C9.55397 61.8295 10.1544 60.8209 11.6869 60.6423C13.549 60.4258 14.4983 61.6523 14.7385 63.1363C15.574 68.3169 18.6435 71.4936 23.0607 74.0763C26.9062 76.3249 30.2765 79.386 33.7944 82.0409C37.0059 78.4869 39.8828 74.7477 43.3312 71.6432C46.7258 68.5886 50.6953 66.1812 54.6117 63.3453ZM117.867 103.42C118.211 88.54 108.981 74.4911 92.9704 70.3673C90.2945 69.6775 87.427 68.8577 84.7662 69.1544C78.5573 69.8534 72.4697 69.858 66.4158 68.2887C65.6665 68.055 64.8733 67.9966 64.0978 68.118C63.3223 68.2395 62.5851 68.5368 61.9429 68.9883C59.823 70.4546 57.5711 71.745 55.5299 73.3103C43.2353 82.7439 36.4908 94.9268 37.6847 110.732C38.6987 124.15 45.9058 133.56 57.8629 139.092C66.8036 143.203 76.772 144.539 86.4793 142.925C96.6046 141.35 104.841 136.57 110.524 127.88C115.372 120.466 117.652 112.241 117.867 103.42ZM52.6773 39.8216C52.546 50.5613 57.5434 57.303 66.967 59.7912C69.6718 60.5312 72.4527 60.9569 75.2552 61.0603C86.4884 61.3517 95.7415 57.221 101.785 47.5649C105.809 41.1374 106.379 34.0991 102.901 27.0461C99.0993 19.3321 92.6062 14.6059 84.8168 11.8657C75.4075 8.55511 62.855 12.4644 57.6982 22.4985C54.8893 27.8821 53.1823 33.7722 52.6773 39.8235V39.8216Z" fill="black"/>
<path d="M79.8851 83.4912C79.8923 84.0497 79.7886 84.6043 79.5792 85.1215C79.3698 85.6394 79.0594 86.11 78.6662 86.5064C78.2731 86.9028 77.8058 87.2172 77.2899 87.4312C76.774 87.6452 76.2207 87.7534 75.6622 87.7508C75.103 87.7797 74.5444 87.6918 74.0213 87.4922C73.4982 87.2927 73.0231 86.9855 72.6253 86.5917C72.2276 86.1973 71.9165 85.7247 71.7123 85.2029C71.5082 84.6818 71.415 84.1239 71.4386 83.564C71.4091 81.1848 73.0178 79.2768 75.1404 79.1745C77.3175 79.0688 79.8096 81.3351 79.8851 83.4912Z" fill="black"/>
<path d="M75.0164 102.523C77.0891 102.519 79.4184 105.01 79.4217 107.236C79.3836 108.25 78.9537 109.209 78.2232 109.912C77.4921 110.615 76.5174 111.008 75.5027 111.007C74.3764 110.979 73.302 110.524 72.4967 109.737C71.6913 108.948 71.2142 107.885 71.1617 106.759C71.1262 105.69 71.5089 104.649 72.2289 103.858C72.9489 103.067 73.9485 102.588 75.0164 102.523Z" fill="black"/>
<path d="M75.8552 132.956C75.3524 132.989 74.849 132.917 74.3764 132.744C73.9039 132.571 73.4727 132.299 73.111 131.95C72.7487 131.599 72.4645 131.177 72.2762 130.71C72.0871 130.244 71.9979 129.743 72.0149 129.24C71.9834 128.683 72.0642 128.126 72.2525 127.601C72.4409 127.076 72.733 126.595 73.111 126.186C73.4891 125.776 73.9459 125.447 74.4539 125.218C74.9619 124.989 75.5113 124.864 76.0685 124.851C77.0832 124.843 78.0611 125.232 78.7943 125.934C79.5267 126.637 79.9566 127.597 79.9914 128.611C80.0052 129.169 79.9094 129.723 79.7092 130.242C79.509 130.762 79.2078 131.238 78.8238 131.642C78.4398 132.045 77.9797 132.369 77.4704 132.595C76.9611 132.821 76.4118 132.943 75.8552 132.956Z" fill="black"/>
<path d="M79.7317 33.6471C80.0251 33.6434 80.3172 33.6902 80.5948 33.7856C84.2992 35.641 88.1499 37.3146 90.9722 40.4874C92.7627 42.501 92.7784 44.655 91.3115 46.263C89.8977 47.8126 87.7332 47.8431 85.5298 46.2771C83.5648 44.9773 81.6765 43.5649 79.8742 42.0474C78.5306 40.8778 77.4175 39.4674 76.5925 37.8889C75.4918 35.6416 77.0985 33.5808 79.7317 33.6471Z" fill="black"/>
<path d="M94.7322 27.9028C94.7551 28.349 94.6869 28.795 94.532 29.2141C94.3771 29.6333 94.1388 30.0165 93.8317 30.3409C93.5245 30.6654 93.155 30.9244 92.7448 31.1018C92.3346 31.2792 91.8922 31.3718 91.4459 31.3736C91.0271 31.3866 90.611 31.3157 90.2205 31.1652C89.8293 31.0147 89.4729 30.7871 89.1717 30.4967C88.8704 30.2063 88.6302 29.8591 88.4655 29.4744C88.3001 29.0897 88.2141 28.6757 88.2115 28.2572C88.1609 27.8133 88.2016 27.3636 88.3322 26.9362C88.4622 26.5088 88.6794 26.1123 88.9689 25.7722C89.259 25.4322 89.6154 25.1559 90.017 24.9595C90.4181 24.7631 90.8558 24.6509 91.3022 24.6307C91.7478 24.596 92.1961 24.6557 92.6175 24.8056C93.0388 24.9557 93.4234 25.1925 93.747 25.5011C94.0706 25.8098 94.3259 26.1834 94.4952 26.5971C94.6652 27.0109 94.746 27.4558 94.7322 27.9028Z" fill="black"/>
<path d="M69.799 28.4494C69.8082 28.871 69.7347 29.2903 69.5817 29.6832C69.4282 30.0762 69.1991 30.4354 68.907 30.7395C68.615 31.0437 68.2658 31.2868 67.8792 31.4554C67.4926 31.6242 67.0765 31.7147 66.6551 31.7221C66.234 31.747 65.8127 31.6874 65.4156 31.5458C65.0184 31.4043 64.6538 31.184 64.3436 30.8985C64.0334 30.613 63.7839 30.2679 63.61 29.8838C63.4361 29.4998 63.3412 29.085 63.3312 28.6635C63.312 28.214 63.3836 27.7649 63.5417 27.3438C63.6998 26.9225 63.9413 26.5376 64.2516 26.2118C64.5618 25.886 64.9344 25.6263 65.3473 25.4478C65.7603 25.2693 66.205 25.1756 66.6551 25.1729C67.5051 25.193 68.3137 25.5486 68.9024 26.1625C69.4918 26.7764 69.8134 27.5987 69.799 28.4494Z" fill="black"/>
</g>
<defs>
<clipPath id="clip0">
<rect width="154.239" height="153.583" fill="white" transform="translate(0.796387 0.124023)"/>
</clipPath>
</defs>
</svg>

<svg xmlns="http://www.w3.org/2000/svg" width="156" height="154" fill="none" viewBox="0 0 156 154"><g fill="#000" clip-path="url(#a)"><path d="M54.612 63.345c-.041-.092-.075-.355-.225-.478-8.587-7.133-11.338-16.408-9.793-27.149 1.444-10.049 5.125-19.193 12.874-26.007C65.348 2.779 74.598-.834 85.34.637a16.3 16.3 0 0 1 4.215 1.116c11.026 4.761 19.887 11.898 24.11 23.519 3.592 9.878 1.795 19.273-3.967 27.871-1.916 2.86-4.478 5.286-6.901 8.092 9.836 2.845 15.998 10.061 21.223 18.685 1.348-.877 2.538-1.658 3.735-2.429a44 44 0 0 1 4.553-2.873c5.22-2.517 9.207-6.212 11.677-11.505.415-.798.93-1.539 1.534-2.205.996-1.19 2.211-2.085 3.79-1.173s1.34 2.447.967 3.904q-.327.954-.752 1.87c-.38 1.03-.731 2.07-1.128 3.201 1.343.7 2.564 1.236 3.675 1.94 1.981 1.255 2.71 2.871 2.166 4.464a3.59 3.59 0 0 1-3.263 2.444 3.6 3.6 0 0 1-1.417-.23c-3.559-1.463-6.213-.109-9.026 1.729-3.192 2.085-6.535 3.938-9.785 5.938-1.131.696-2.184 1.521-3.371 2.358 1.549 5.703 2.449 11.379 1.958 17.106-1.401 16.338-7.128 30.571-20.971 40.436-10.442 7.442-22.222 9.799-34.856 8.409a58.8 58.8 0 0 1-17.232-4.332c-17.604-7.69-27.55-21.025-28.928-40.321-.401-5.63.731-11.177 2.48-16.56.307-.946.624-1.888.91-2.753L13.008 75.054c-2.458 0-5.024.017-7.59-.012a7.6 7.6 0 0 1-1.997-.262C2.01 74.377.992 73.477.934 71.95c-.057-1.554.94-2.511 2.349-2.905a16.7 16.7 0 0 1 2.992-.373c1.09-.097 2.186-.15 3.26-.221 0-1.575-.009-2.895 0-4.217.019-2.404.62-3.413 2.152-3.592 1.862-.216 2.811 1.01 3.052 2.494.835 5.18 3.904 8.358 8.322 10.94 3.845 2.249 7.215 5.31 10.733 7.965 3.212-3.554 6.089-7.293 9.537-10.398 3.395-3.054 7.364-5.462 11.28-8.298m63.255 40.075c.344-14.88-8.886-28.929-24.897-33.053-2.675-.69-5.543-1.51-8.204-1.213-6.209.7-12.296.704-18.35-.865a5.12 5.12 0 0 0-4.473.7c-2.12 1.466-4.372 2.756-6.413 4.321-12.295 9.434-19.04 21.617-17.845 37.422 1.014 13.418 8.22 22.828 20.178 28.36a49.2 49.2 0 0 0 28.616 3.833c10.126-1.575 18.362-6.355 24.045-15.045 4.848-7.414 7.128-15.639 7.343-24.46m-65.19-63.598c-.131 10.74 4.866 17.481 14.29 19.97a36.5 36.5 0 0 0 8.288 1.268c11.233.292 20.487-3.839 26.53-13.495 4.024-6.428 4.594-13.466 1.116-20.519-3.802-7.714-10.295-12.44-18.084-15.18-9.41-3.31-21.962.598-27.119 10.633a45.7 45.7 0 0 0-5.02 17.325z"/><path d="M79.885 83.491a4.2 4.2 0 0 1-2.595 3.94 4.2 4.2 0 0 1-1.628.32 4.02 4.02 0 0 1-4.223-4.187c-.03-2.38 1.579-4.287 3.701-4.39 2.177-.105 4.67 2.161 4.745 4.317m-4.869 19.032c2.073-.004 4.402 2.487 4.406 4.713a3.92 3.92 0 0 1-3.92 3.771 4.46 4.46 0 0 1-4.341-4.248 4.107 4.107 0 0 1 3.855-4.236m.839 30.433a3.6 3.6 0 0 1-2.744-1.006 3.6 3.6 0 0 1-1.096-2.71 4.16 4.16 0 0 1 2.439-4.022 4.2 4.2 0 0 1 1.615-.367 3.9 3.9 0 0 1 3.922 3.76 4.24 4.24 0 0 1-4.136 4.345m3.877-99.309c.293-.004.585.043.863.139 3.704 1.855 7.555 3.529 10.377 6.701 1.79 2.014 1.806 4.168.34 5.776-1.414 1.55-3.579 1.58-5.782.014a61 61 0 0 1-5.656-4.23 14.3 14.3 0 0 1-3.281-4.158c-1.101-2.247.505-4.308 3.139-4.242m15-5.744a3.3 3.3 0 0 1-.9 2.438 3.3 3.3 0 0 1-2.386 1.033 3.135 3.135 0 0 1-3.234-3.117 3.26 3.26 0 0 1 3.09-3.626 3.187 3.187 0 0 1 3.43 3.272m-24.933.547a3.2 3.2 0 0 1-.892 2.29 3.2 3.2 0 0 1-2.252.982 3.137 3.137 0 0 1-3.324-3.059 3.35 3.35 0 0 1 3.324-3.49 3.22 3.22 0 0 1 3.144 3.276"/></g><defs><clipPath id="a"><path fill="#fff" d="M.796.124h154.24v153.583H.795z"/></clipPath></defs></svg>
